dist/img/address-icon.svg

<svg width="24" height="24" viewBox="0 0 24 24" fill="none" xmlns="http://www.w3.org/2000/svg">
<path d="M14.7808 19.7005L14.1906 19.2377L14.7808 19.7005ZM9.21921 19.7005L8.62903 20.1633L9.21921 19.7005ZM12 22.0055V21.2555V22.0055ZM19.25 9.6087C19.25 10.8352 18.6104 12.4764 17.6037 14.256C16.6137 16.0063 15.3342 17.7794 14.1906 19.2377L15.371 20.1633C16.5371 18.6762 17.8672 16.837 18.9094 14.9945C19.9349 13.1814 20.75 11.2494 20.75 9.6087H19.25ZM9.80938 19.2377C8.66578 17.7794 7.38628 16.0063 6.39625 14.256C5.38962 12.4764 4.75 10.8352 4.75 9.6087H3.25C3.25 11.2494 4.06511 13.1814 5.09064 14.9945C6.13277 16.837 7.46288 18.6762 8.62903 20.1633L9.80938 19.2377ZM4.75 9.6087C4.75 5.21571 8.04678 1.75 12 1.75V0.25C7.11666 0.25 3.25 4.49277 3.25 9.6087H4.75ZM12 1.75C15.9532 1.75 19.25 5.21571 19.25 9.6087H20.75C20.75 4.49277 16.8833 0.25 12 0.25V1.75ZM14.1906 19.2377C13.5717 20.027 13.1641 20.5426 12.7992 20.8741C12.4664 21.1764 12.2442 21.2555 12 21.2555V22.7555C12.7291 22.7555 13.2948 22.4504 13.8078 21.9844C14.2886 21.5476 14.7849 20.9107 15.371 20.1633L14.1906 19.2377ZM8.62903 20.1633C9.21511 20.9107 9.71136 21.5476 10.1922 21.9844C10.7052 22.4504 11.2709 22.7555 12 22.7555V21.2555C11.7558 21.2555 11.5336 21.1764 11.2008 20.8741C10.8359 20.5426 10.4283 20.027 9.80938 19.2377L8.62903 20.1633ZM8.25 10C8.25 12.0711 9.92893 13.75 12 13.75V12.25C10.7574 12.25 9.75 11.2426 9.75 10H8.25ZM12 13.75C14.0711 13.75 15.75 12.0711 15.75 10H14.25C14.25 11.2426 13.2426 12.25 12 12.25V13.75ZM15.75 10C15.75 7.92893 14.0711 6.25 12 6.25V7.75C13.2426 7.75 14.25 8.75736 14.25 10H15.75ZM12 6.25C9.92893 6.25 8.25 7.92893 8.25 10H9.75C9.75 8.75736 10.7574 7.75 12 7.75V6.25Z" fill="white" fill-opacity="0.8"/>
</svg>

<svg width="24" height="24" fill="none" xmlns="http://www.w3.org/2000/svg"><path d="m14.78 19.7-.59-.462.59.463Zm-5.56 0-.591.463.59-.462ZM12 22.007v-.75.75ZM19.25 9.61c0 1.226-.64 2.867-1.646 4.647-.99 1.75-2.27 3.523-3.413 4.982l1.18.925c1.166-1.487 2.496-3.326 3.538-5.168 1.026-1.814 1.841-3.746 1.841-5.386h-1.5Zm-9.44 9.629c-1.144-1.459-2.424-3.232-3.414-4.982-1.006-1.78-1.646-3.42-1.646-4.647h-1.5c0 1.64.815 3.572 1.84 5.386 1.043 1.842 2.373 3.681 3.539 5.168l1.18-.925Zm-5.06-9.63C4.75 5.217 8.047 1.75 12 1.75V.25c-4.883 0-8.75 4.243-8.75 9.359h1.5ZM12 1.75c3.953 0 7.25 3.466 7.25 7.859h1.5C20.75 4.493 16.883.25 12 .25v1.5Zm2.19 17.488c-.618.789-1.026 1.305-1.39 1.636-.334.302-.556.382-.8.382v1.5c.73 0 1.295-.306 1.808-.772.48-.436.977-1.073 1.563-1.82l-1.18-.926Zm-5.561.925c.586.748 1.082 1.385 1.563 1.821.513.466 1.079.771 1.808.771v-1.5c-.244 0-.466-.079-.8-.38-.364-.332-.772-.848-1.39-1.637l-1.181.925ZM8.25 10A3.75 3.75 0 0 0 12 13.75v-1.5A2.25 2.25 0 0 1 9.75 10h-1.5ZM12 13.75A3.75 3.75 0 0 0 15.75 10h-1.5A2.25 2.25 0 0 1 12 12.25v1.5ZM15.75 10A3.75 3.75 0 0 0 12 6.25v1.5A2.25 2.25 0 0 1 14.25 10h1.5ZM12 6.25A3.75 3.75 0 0 0 8.25 10h1.5A2.25 2.25 0 0 1 12 7.75v-1.5Z" fill="#fff" fill-opacity=".8"/></svg>
